svg/u1f92b.svg

<svg viewBox="0 0 128 128" xmlns="http://www.w3.org/2000/svg">
  <g id="gold">
    <radialGradient id="face_1_" cx="63.6" cy="1400.9" gradientTransform="matrix(1 0 0 1 0 -1338)" gradientUnits="userSpaceOnUse" r="56.9597">
      <stop offset="0.5" stop-color="#FDE030"/>
      <stop offset="0.92" stop-color="#F7C02B"/>
      <stop offset="1" stop-color="#F4A223"/>
    </radialGradient>
    <path id="face" d="M63.6,118.8c-27.9,0-58-17.5-58-55.9S35.7,7,63.6,7c15.5,0,29.8,5.1,40.4,14.4 c11.5,10.2,17.6,24.6,17.6,41.5s-6.1,31.2-17.6,41.4C93.4,113.6,79,118.8,63.6,118.8z" fill="url(#face_1_)"/>
    <linearGradient id="face-2_1_" gradientTransform="matrix(1 0 0 1 0 -1338)" gradientUnits="userSpaceOnUse" x1="63.6" x2="63.6" y1="1456.8" y2="1345">
      <stop offset="0.16" stop-color="#F4A223"/>
      <stop offset="0.33" stop-color="#F7C02B"/>
      <stop offset="0.81" stop-color="#FDE030" stop-opacity="0"/>
    </linearGradient>
    <path id="face-2" d="M63.6,118.8c-27.9,0-58-17.5-58-55.9S35.7,7,63.6,7c15.5,0,29.8,5.1,40.4,14.4 c11.5,10.2,17.6,24.6,17.6,41.5s-6.1,31.2-17.6,41.4C93.4,113.6,79,118.8,63.6,118.8z" fill="url(#face-2_1_)"/>
    <path d="M111.49,29.67c5.33,8.6,8.11,18.84,8.11,30.23c0,16.9-6.1,31.2-17.6,41.4 c-10.6,9.3-25,14.5-40.4,14.5c-18.06,0-37-7.35-48.18-22.94c10.76,17.66,31,25.94,50.18,25.94c15.4,0,29.8-5.2,40.4-14.5 c11.5-10.2,17.6-24.5,17.6-41.4C121.6,50.16,118.13,38.84,111.49,29.67z" fill="#EB8F00"/>
  </g>
  <g id="facial_expressions">
    <path id="mouth" d="M79.7,68.3c-9,2.19-11.8,1.97-15.5,1.97h-0.4c-3.7,0-6.5,0.22-15.5-1.97 c-1.6-0.33-2.9,1.86-0.5,3.83c4.8,3.83,10.5,5.04,16.2,5.04l0,0c5.7,0,11.4-1.2,16.2-5.04C82.6,70.16,81.3,67.97,79.7,68.3z" fill="#422B0D"/>
    <g id="peepers">
      <path d="M43.7,55.1c1.85-0.02,3.7,0.18,5.5,0.6c0.96,0.25,1.96-0.21,2.4-1.1c0.75-1.56,1.13-3.27,1.1-5 c0-5.9-3.8-9.4-8-9.4s-8,3.5-8,9.4c-0.03,1.55,0.28,3.08,0.9,4.5c0.36,0.87,1.28,1.37,2.2,1.2C41,55.2,42.3,55.1,43.7,55.1z" fill="#422B0D"/>
      <path d="M84.3,55.1c-1.85-0.02-3.7,0.18-5.5,0.6c-0.96,0.23-1.95-0.23-2.4-1.1c-0.75-1.56-1.13-3.27-1.1-5 c0-5.9,3.8-9.4,8-9.4s8,3.5,8,9.4c0.03,1.55-0.28,3.08-0.9,4.5c-0.36,0.87-1.28,1.37-2.2,1.2C87,55.2,85.7,55.1,84.3,55.1z" fill="#422B0D"/>
    </g>
    <radialGradient id="SVGID_1_" cx="69.12" cy="92.807" gradientTransform="matrix(1 0 0 -1.14 0 184.14)" gradientUnits="userSpaceOnUse" r="0">
      <stop offset="0.41" stop-color="#FFF176"/>
      <stop offset="1" stop-color="#FFC400"/>
    </radialGradient>
    <path d="M69.12,78.34" fill="url(#SVGID_1_)"/>
    <linearGradient id="SVGID_2_" gradientTransform="matrix(1 0 0 -1 0 130)" gradientUnits="userSpaceOnUse" x1="69.12" x2="69.12" y1="51.66" y2="51.66">
      <stop offset="0.09" stop-color="#EB8F00"/>
      <stop offset="1" stop-color="#FFC400"/>
    </linearGradient>
    <path d="M69.12,78.34" fill="url(#SVGID_2_)"/>
    <path d="M68.71,70c-0.69,0-1.32,0-1.93,0.06c-0.3,2.06-0.42,4.14-0.36,6.22c0.73,0,1.46-0.11,2.18-0.2 C68.45,74.05,68.49,72.02,68.71,70z" fill="#422B0D"/>
    <radialGradient id="SVGID_3_" cx="65.4678" cy="50.8256" gradientTransform="matrix(0.0773 0.997 0.7189 -0.0558 23.8635 16.7376)" gradientUnits="userSpaceOnUse" r="41.8947">
      <stop offset="0" stop-color="#FFF176"/>
      <stop offset="0.1478" stop-color="#FFEE6E"/>
      <stop offset="0.3769" stop-color="#FFE658"/>
      <stop offset="0.6585" stop-color="#FFD835"/>
      <stop offset="0.9793" stop-color="#FFC503"/>
      <stop offset="1" stop-color="#FFC400"/>
    </radialGradient>
    <path d="M92.37,93.87c-0.21-0.72-0.61-1.37-1.17-1.87l0,0c-1.87-2.27-4.9-3.23-7.74-2.45 c0-0.09-0.06-0.19-0.1-0.27c0.63-2.75,0.36-5.63-0.78-8.21c-1.36-2.57-3.99-4.21-6.89-4.3c-2.32-0.13-7.01,1.1-7.74,1.14 c0,0,0.98-3.02,1.17-9.64C69.48,55.29,66.11,54,63.6,53.6c-3.87-0.62-4.48,2.17-4.34,6.63c0.07,2.25,0.33,6.9-1.91,16.67 c-1.08,4.71-4.16,8.87-4.28,9.05c-8.7,13-6.86,25.3-1.36,31.8c3.34,3.8,8.13,4.99,13.17,5.29c4.15,0.26,10.24-0.47,14.09-4.23 c3.85-3.76,5.44-13.75,5.53-14.65c1.22,0.04,2.44-0.13,3.6-0.52c1.5-0.55,2.76-1.61,3.56-3c0.79-1.36,1.17-2.93,1.09-4.5 C92.75,95.36,92.62,94.6,92.37,93.87z" fill="url(#SVGID_3_)"/>
    <path d="M88.78,101.44c0,0-1.25,1.28-4.47,1.2c-0.28-1.26-0.72-2.33-1.43-3.18 c0.83-1.76,2.48-5.43,1.45-8.64c3.91-0.44,6.07,1.58,6.56,3.74c0.88,3.87-1.14,7.15-4.68,7.95c-2.33,0.53,3.43,1.87,3.55,2.02 c4.26-1.99,4.28-6.78,4.15-9.08c-0.56-6.33-6.42-7.65-9.53-6.98c0.09-6.39-2.19-12.07-9.37-12.35c-2.63-0.1-4.24,0.14-5.31,0.49 c0,0,0.4-1.79,0.58-6.61c0.39-10.41-1.35-17.77-7.58-17.77c-3.77,0-3.86,2.75-4.17,7.4c-0.31,4.63,0.82,13.88-6.57,26.65 c-1.99,3.43-5.15,10.74-4.77,16.74c0,0,2.26-9.4,6.54-16.23c7.72-12.33,6.64-22.95,6.81-26.81c0.21-4.72,0.78-5.05,2.16-5.2 c4.51-0.02,5.67,4.9,5.3,14.38c-0.16,4.09-0.28,7.16-1.6,8.62c-1.28,1.41-5.53,4.21-6.12,6.11c-0.59,1.9,3.71-3.79,12.45-5.02 c5.72-0.8,8.77,2.27,8.66,7.79c-5.8-3.87-13.8,1.52-15.43,3.05s-2.12,2.94-2.12,2.94c3.72-1.8,10.35-5.66,14.92-4.03 c3.57,1.6,3.37,5.55,1.8,8.66c-4.7-3.14-11.2-0.21-13.07,1.41c-1.86,1.63-1.72,2.91-1.72,2.91c8.85-6.12,13.73-1.63,14.75-0.3 c1.89,2.28,1.92,3.93-0.43,7.81c-1.71,2.83-4.39,1.91-4.85,1.47c-1.01-0.9-1.57-2.95-0.5-3.93c0.95-0.86,1.81-0.96,1.49-1.39 c-0.33-0.43-1.95-0.62-3.08,0.11c-1.85,1.19-1.78,4.82,0.13,6.89c2.88,2,4.54,1.43,5.77,0.84c0.75-0.36,0.21,2.82-3.34,5.67 c-4.17,3.35-20.07,4.75-26.76-5.48c0,0,1.77,9.89,19.03,10.22c7.88,0.15,12.88-4,14.37-8.88c0.58-1.91,1.4-4.1,1.95-6.19 s1.69-2.81,2.64-3.01c1.05-0.22,2.3-0.57,3.1-1.08L88.78,101.44z" fill="#EB8F00"/>
  </g>
  <g id="peepers_122_">
    <path d="M42.6,43.72L42.6,43.72c-1.39-0.26-2.73,0.66-2.98,2.05c-0.2,1.09,0.32,2.18,1.29,2.71l0,0 c1.39,0.26,2.73-0.66,2.98-2.05C44.09,45.34,43.57,44.25,42.6,43.72z" fill="#896024"/>
  </g>
  <g id="peepers_1_">
    <path d="M81.11,43.72L81.11,43.72c-1.39-0.26-2.73,0.66-2.98,2.05c-0.2,1.09,0.32,2.18,1.29,2.71l0,0 c1.39,0.26,2.73-0.66,2.98-2.05C82.6,45.34,82.08,44.25,81.11,43.72z" fill="#896024"/>
  </g>
</svg>

<svg viewBox="0 0 128 128" xmlns="http://www.w3.org/2000/svg">
  <defs>
    <radialGradient id="face_1_" cx="63.6" cy="62.9" gradientUnits="userSpaceOnUse" r="56.9597">
      <stop offset="0.5" stop-color="#FDE030"/>
      <stop offset="0.92" stop-color="#F7C02B"/>
      <stop offset="1" stop-color="#F4A223"/>
    </radialGradient>
    <linearGradient id="face-2_1_" gradientUnits="userSpaceOnUse" x1="63.6" x2="63.6" y1="118.8" y2="7">
      <stop offset="0.16" stop-color="#F4A223"/>
      <stop offset="0.33" stop-color="#F7C02B"/>
      <stop offset="0.81" stop-color="#FDE030" stop-opacity="0"/>
    </linearGradient>
    <radialGradient id="SVGID_1_" cx="69.12" cy="-68.719316" gradientTransform="matrix(1 0 0 -1.14 0 0)" gradientUnits="userSpaceOnUse" r="0">
      <stop offset="0.41" stop-color="#FFF176"/>
      <stop offset="1" stop-color="#FFC400"/>
    </radialGradient>
    <linearGradient id="SVGID_2_" gradientTransform="matrix(1 0 0 -1 0 0)" gradientUnits="userSpaceOnUse" x1="69.12" x2="69.12" y1="-78.34" y2="-78.34">
      <stop offset="0.09" stop-color="#EB8F00"/>
      <stop offset="1" stop-color="#FFC400"/>
    </linearGradient>
    <radialGradient id="SVGID_3_" cx="84.00205" cy="82.027161" gradientTransform="matrix(0.0773 0.997 0.7189 -0.0558 0 0)" gradientUnits="userSpaceOnUse" r="41.8947">
      <stop offset="0" stop-color="#FFF176"/>
      <stop offset="0.1478" stop-color="#FFEE6E"/>
      <stop offset="0.3769" stop-color="#FFE658"/>
      <stop offset="0.6585" stop-color="#FFD835"/>
      <stop offset="0.9793" stop-color="#FFC503"/>
      <stop offset="1" stop-color="#FFC400"/>
    </radialGradient>
  </defs>
  <path id="face" d="M63.6,118.8 C35.7,118.8 5.6,101.3 5.6,62.9 C5.6,24.5 35.7,7 63.6,7 C79.1,7 93.4,12.1 104,21.4 C115.5,31.6 121.6,46 121.6,62.9 C121.6,79.8 115.5,94.1 104,104.3 C93.4,113.6 79,118.8 63.6,118.8 Z" fill="url(#face_1_)"/>
  <path id="face-2" d="M63.6,118.8 C35.7,118.8 5.6,101.3 5.6,62.9 C5.6,24.5 35.7,7 63.6,7 C79.1,7 93.4,12.1 104,21.4 C115.5,31.6 121.6,46 121.6,62.9 C121.6,79.8 115.5,94.1 104,104.3 C93.4,113.6 79,118.8 63.6,118.8 Z" fill="url(#face-2_1_)"/>
  <path d="M111.49,29.67 C116.82,38.27 119.6,48.51 119.6,59.9 C119.6,76.8 113.5,91.1 102,101.3 C91.4,110.6 77,115.8 61.6,115.8 C43.54,115.8 24.6,108.45 13.42,92.86 C24.18,110.52 44.42,118.8 63.6,118.8 C79,118.8 93.4,113.6 104,104.3 C115.5,94.1 121.6,79.8 121.6,62.9 C121.6,50.16 118.13,38.84 111.49,29.67 Z" fill="#EB8F00"/>
  <path id="mouth" d="M79.7,68.3 C70.7,70.49 67.9,70.27 64.2,70.27 L63.8,70.27 C60.1,70.27 57.3,70.49 48.3,68.3 C46.7,67.97 45.4,70.16 47.8,72.13 C52.6,75.96 58.3,77.17 64,77.17 L64,77.17 C69.7,77.17 75.4,75.97 80.2,72.13 C82.6,70.16 81.3,67.97 79.7,68.3 Z" fill="#422B0D"/>
  <path d="M43.7,55.1 C45.55,55.08 47.4,55.28 49.2,55.7 C50.16,55.95 51.16,55.49 51.6,54.6 C52.35,53.04 52.73,51.33 52.7,49.6 C52.7,43.7 48.9,40.2 44.7,40.2 C40.5,40.2 36.7,43.7 36.7,49.6 C36.67,51.15 36.98,52.68 37.6,54.1 C37.96,54.97 38.88,55.47 39.8,55.3 C41,55.2 42.3,55.1 43.7,55.1 Z" fill="#422B0D"/>
  <path d="M84.3,55.1 C82.45,55.08 80.6,55.28 78.8,55.7 C77.84,55.93 76.85,55.47 76.4,54.6 C75.65,53.04 75.27,51.33 75.3,49.6 C75.3,43.7 79.1,40.2 83.3,40.2 C87.5,40.2 91.3,43.7 91.3,49.6 C91.33,51.15 91.02,52.68 90.4,54.1 C90.04,54.97 89.12,55.47 88.2,55.3 C87,55.2 85.7,55.1 84.3,55.1 Z" fill="#422B0D"/>
  <path d="M68.71,70 C68.02,70 67.39,70 66.78,70.06 C66.48,72.12 66.36,74.2 66.42,76.28 C67.15,76.28 67.88,76.17 68.6,76.08 C68.45,74.05 68.49,72.02 68.71,70 Z" fill="#422B0D"/>
  <path d="M92.37,93.87 C92.16,93.15 91.76,92.5 91.2,92 L91.2,92 C89.33,89.73 86.3,88.77 83.46,89.55 C83.46,89.46 83.4,89.36 83.36,89.28 C83.99,86.53 83.72,83.65 82.58,81.07 C81.22,78.5 78.59,76.86 75.69,76.77 C73.37,76.64 68.68,77.87 67.95,77.91 C67.95,77.91 68.93,74.89 69.12,68.27 C69.48,55.29 66.11,54 63.6,53.6 C59.73,52.98 59.12,55.77 59.26,60.23 C59.33,62.48 59.59,67.13 57.35,76.9 C56.27,81.61 53.19,85.77 53.07,85.95 C44.37,98.95 46.21,111.25 51.71,117.75 C55.05,121.55 59.84,122.74 64.88,123.04 C69.03,123.3 75.12,122.57 78.97,118.81 C82.82,115.05 84.41,105.06 84.5,104.16 C85.72,104.2 86.94,104.03 88.1,103.64 C89.6,103.09 90.86,102.03 91.66,100.64 C92.45,99.28 92.83,97.71 92.75,96.14 C92.75,95.36 92.62,94.6 92.37,93.87 Z" fill="url(#SVGID_3_)"/>
  <path d="M88.78,101.44 C88.78,101.44 87.53,102.72 84.31,102.64 C84.03,101.38 83.59,100.31 82.88,99.46 C83.71,97.7 85.36,94.03 84.33,90.82 C88.24,90.38 90.4,92.4 90.89,94.56 C91.77,98.43 89.75,101.71 86.21,102.51 C83.88,103.04 89.64,104.38 89.76,104.53 C94.02,102.54 94.04,97.75 93.91,95.45 C93.35,89.12 87.49,87.8 84.38,88.47 C84.47,82.08 82.19,76.4 75.01,76.12 C72.38,76.02 70.77,76.26 69.7,76.61 C69.7,76.61 70.1,74.82 70.28,70 C70.67,59.59 68.93,52.23 62.7,52.23 C58.93,52.23 58.84,54.98 58.53,59.63 C58.22,64.26 59.35,73.51 51.96,86.28 C49.97,89.71 46.81,97.02 47.19,103.02 C47.19,103.02 49.45,93.62 53.73,86.79 C61.45,74.46 60.37,63.84 60.54,59.98 C60.75,55.26 61.32,54.93 62.7,54.78 C67.21,54.76 68.37,59.68 68,69.16 C67.84,73.25 67.72,76.32 66.4,77.78 C65.12,79.19 60.87,81.99 60.28,83.89 C59.69,85.79 63.99,80.1 72.73,78.87 C78.45,78.07 81.5,81.14 81.39,86.66 C75.59,82.79 67.59,88.18 65.96,89.71 C64.33,91.24 63.84,92.65 63.84,92.65 C67.56,90.85 74.19,86.99 78.76,88.62 C82.33,90.22 82.13,94.17 80.56,97.28 C75.86,94.14 69.36,97.07 67.49,98.69 C65.63,100.32 65.77,101.6 65.77,101.6 C74.62,95.48 79.5,99.97 80.52,101.3 C82.41,103.58 82.44,105.23 80.09,109.11 C78.38,111.94 75.7,111.02 75.24,110.58 C74.23,109.68 73.67,107.63 74.74,106.65 C75.69,105.79 76.55,105.69 76.23,105.26 C75.9,104.83 74.28,104.64 73.15,105.37 C71.3,106.56 71.37,110.19 73.28,112.26 C76.16,114.26 77.82,113.69 79.05,113.1 C79.8,112.74 79.26,115.92 75.71,118.77 C71.54,122.12 55.64,123.52 48.95,113.29 C48.95,113.29 50.72,123.18 67.98,123.51 C75.86,123.66 80.86,119.51 82.35,114.63 C82.93,112.72 83.75,110.53 84.3,108.44 C84.85,106.35 85.99,105.63 86.94,105.43 C87.99,105.21 89.24,104.86 90.04,104.35 L88.78,101.44 Z" fill="#EB8F00"/>
  <path d="M42.6,43.72 L42.6,43.72 C41.21,43.46 39.87,44.38 39.62,45.77 C39.42,46.86 39.94,47.95 40.91,48.48 L40.91,48.48 C42.3,48.74 43.64,47.82 43.89,46.43 C44.09,45.34 43.57,44.25 42.6,43.72 Z" fill="#896024"/>
  <path d="M81.11,43.72 L81.11,43.72 C79.72,43.46 78.38,44.38 78.13,45.77 C77.93,46.86 78.45,47.95 79.42,48.48 L79.42,48.48 C80.81,48.74 82.15,47.82 82.4,46.43 C82.6,45.34 82.08,44.25 81.11,43.72 Z" fill="#896024"/>
</svg>
